X:4019
T:Drowsy Maggie
R:Reel
C:Trad.
O:Ireland
Z:Paul Hardy's Session Tunebook 2015 (see www.paulhardy.net). Creative Commons cc by-nc-sa licenced.
M:4/4
L:1/8
Q:1/4=140
K:D
"Em"E2BE dEBE|E2BE "D"AFDF|"Em"E2BE dEB2|"G"BABc "D"dAFD|
"Em"E2BE dEBE|E2BE "D"AFDF|"Em"E2BE dEB2|"G"BABc "D"dAFA||
"D"d2fd "A7"cdec|"D"d2fd faaf|d2fd "A7"cdec|"G"BABc "D"dAFA|
"D"d2fd "A7"cdec|"D"d2fd faa2|"G"bgaf "D"gfed|"G"BABc "D"dAFD:|"Em"E4 z4|]

